public/about us/Clock.svg

<?xml version="1.0" encoding="iso-8859-1"?>
<!-- Generator: Adobe Illustrator 19.0.0, SVG Export Plug-In . SVG Version: 6.00 Build 0)  -->
<svg version="1.1" fill="#fff" id="2133" xmlns="http://www.w3.org/2000/svg" xmlns:xlink="http://www.w3.org/1999/xlink" x="0px" y="0px"
	 viewBox="0 0 297 297" style="enable-background:new 0 0 297 297;" xml:space="preserve">
<g>
	<g>
		<g>
			<path d="M148.5,0C66.617,0,0,66.617,0,148.5S66.617,297,148.5,297S297,230.383,297,148.5S230.383,0,148.5,0z M148.5,276.085
				c-70.351,0-127.585-57.234-127.585-127.585S78.149,20.915,148.5,20.915S276.085,78.149,276.085,148.5
				S218.851,276.085,148.5,276.085z"/>
			<path d="M148.5,36.602c-61.701,0-111.898,50.197-111.898,111.898S86.799,260.398,148.5,260.398S260.398,210.201,260.398,148.5
				S210.201,36.602,148.5,36.602z M222.849,207.831l-3.338-3.338c-4.083-4.085-10.706-4.084-14.789,0.001
				c-4.084,4.084-4.083,10.706,0.001,14.789l3.362,3.361c-13.761,11.081-30.656,18.415-49.127,20.444v-5.174
				c0-5.775-4.682-10.458-10.458-10.458s-10.458,4.683-10.458,10.458v5.174c-18.552-2.037-35.514-9.427-49.307-20.589l3.772-3.773
				c4.084-4.084,4.083-10.706-0.001-14.789c-4.083-4.085-10.706-4.084-14.789,0.001l-3.711,3.712
				c-10.886-13.681-18.087-30.416-20.094-48.693h5.174c5.775,0,10.458-4.682,10.458-10.458s-4.682-10.458-10.458-10.458h-5.174
				c2.028-18.471,9.363-35.366,20.444-49.127l3.361,3.362c2.042,2.043,4.718,3.064,7.395,3.064c2.676,0,5.352-1.021,7.394-3.063
				c4.084-4.083,4.085-10.705,0.001-14.789l-3.338-3.338c13.715-10.967,30.516-18.224,48.873-20.239v4.39
				c0,5.775,4.682,10.458,10.458,10.458s10.458-4.682,10.458-10.458v-4.39c18.277,2.007,35.011,9.208,48.693,20.094l-2.928,2.928
				c-4.084,4.084-4.083,10.706,0.001,14.789c2.042,2.043,4.717,3.063,7.394,3.063s5.353-1.021,7.395-3.064l2.986-2.987
				c11.162,13.794,18.552,30.755,20.589,49.307h-4.39c-5.775,0-10.458,4.682-10.458,10.458s4.683,10.459,10.458,10.459h4.39
				C241.072,177.315,233.815,194.116,222.849,207.831z"/>
			<path d="M191.377,138.042h-32.419V86.799c0-5.775-4.682-10.458-10.458-10.458s-10.458,4.682-10.458,10.458V148.5
				c0,5.775,4.682,10.458,10.458,10.458h42.877c5.775,0,10.458-4.682,10.458-10.458S197.152,138.042,191.377,138.042z"/>
		</g>
	</g>
</g>
<g>
</g>
<g>
</g>
<g>
</g>
<g>
</g>
<g>
</g>
<g>
</g>
<g>
</g>
<g>
</g>
<g>
</g>
<g>
</g>
<g>
</g>
<g>
</g>
<g>
</g>
<g>
</g>
<g>
</g>
</svg>

<svg width="297" height="297" viewBox="0 0 297 297" fill="none" xmlns="http://www.w3.org/2000/svg">
<path d="M148.5 0C66.617 0 0 66.617 0 148.5C0 230.383 66.617 297 148.5 297C230.383 297 297 230.383 297 148.5C297 66.617 230.383 0 148.5 0ZM148.5 276.085C78.149 276.085 20.915 218.851 20.915 148.5C20.915 78.149 78.149 20.915 148.5 20.915C218.851 20.915 276.085 78.149 276.085 148.5C276.085 218.851 218.851 276.085 148.5 276.085Z" fill="#303030"/>
<path d="M148.5 36.602C86.799 36.602 36.602 86.799 36.602 148.5C36.602 210.201 86.799 260.398 148.5 260.398C210.201 260.398 260.398 210.201 260.398 148.5C260.398 86.799 210.201 36.602 148.5 36.602ZM222.849 207.831L219.511 204.493C215.428 200.408 208.805 200.409 204.722 204.494C200.638 208.578 200.639 215.2 204.723 219.283L208.085 222.644C194.324 233.725 177.429 241.059 158.958 243.088V237.914C158.958 232.139 154.276 227.456 148.5 227.456C142.724 227.456 138.042 232.139 138.042 237.914V243.088C119.49 241.051 102.528 233.661 88.735 222.499L92.507 218.726C96.591 214.642 96.59 208.02 92.506 203.937C88.423 199.852 81.8 199.853 77.717 203.938L74.006 207.65C63.12 193.969 55.919 177.234 53.912 158.957H59.086C64.861 158.957 69.544 154.275 69.544 148.499C69.544 142.723 64.862 138.041 59.086 138.041H53.912C55.94 119.57 63.275 102.675 74.356 88.914L77.717 92.276C79.759 94.319 82.435 95.34 85.112 95.34C87.788 95.34 90.464 94.319 92.506 92.277C96.59 88.194 96.591 81.572 92.507 77.488L89.169 74.15C102.884 63.183 119.685 55.926 138.042 53.911V58.301C138.042 64.076 142.724 68.759 148.5 68.759C154.276 68.759 158.958 64.077 158.958 58.301V53.911C177.235 55.918 193.969 63.119 207.651 74.005L204.723 76.933C200.639 81.017 200.64 87.639 204.724 91.722C206.766 93.765 209.441 94.785 212.118 94.785C214.795 94.785 217.471 93.764 219.513 91.721L222.499 88.734C233.661 102.528 241.051 119.489 243.088 138.041H238.698C232.923 138.041 228.24 142.723 228.24 148.499C228.24 154.275 232.923 158.958 238.698 158.958H243.088C241.072 177.315 233.815 194.116 222.849 207.831Z" fill="#303030"/>
<path d="M191.377 138.042H158.958V86.799C158.958 81.024 154.276 76.341 148.5 76.341C142.724 76.341 138.042 81.023 138.042 86.799V148.5C138.042 154.275 142.724 158.958 148.5 158.958H191.377C197.152 158.958 201.835 154.276 201.835 148.5C201.835 142.724 197.152 138.042 191.377 138.042Z" fill="#303030"/>
</svg>
